X:56
T:Boil The Kettle Early
R:Reel
S:Joe Bane, Clare (whistle).
D:Clare FM broadcast. Also on 'The Maiden Voyage' - music from Pepper's in Feakle.
N:As played
M:4/4
Z:Bernie Stocks
K:A
|: c3A B2AF | E2c2 B2AB | c2{d}cB A2ce | {f}ecBB {d}cAA2 :| a3a {b}a2ba | (3fafe2 (3fafef | 
a3g a2ba | fbba fbb2 | a3a {b}a2ba | (3fafe2 (3fafef | a3f e2ce | faab afe2 ||
<end>
<start>
